public/assets/icons/socialMedia/icon_youtube_white.svg

<svg width="24" height="24" viewBox="0 0 24 24" fill="none" xmlns="http://www.w3.org/2000/svg">
<g clip-path="url(#clip0_5713_2813)">
<path d="M23.5001 6.50701C23.3642 6.02225 23.0995 5.58336 22.7341 5.23702C22.3584 4.88002 21.8979 4.62465 21.3961 4.49501C19.5181 4.00001 11.9941 4.00002 11.9941 4.00002C8.85746 3.96433 5.72156 4.12129 2.60413 4.47001C2.10232 4.60923 1.64269 4.8703 1.26613 5.23002C0.896129 5.58602 0.628129 6.02502 0.488129 6.50602C0.151822 8.31776 -0.0115791 10.1574 0.000128902 12C-0.0118711 13.841 0.151129 15.68 0.488129 17.494C0.625129 17.973 0.892129 18.41 1.26313 18.763C1.63413 19.116 2.09613 19.371 2.60413 19.506C4.50713 20 11.9941 20 11.9941 20C15.1348 20.0358 18.2747 19.8788 21.3961 19.53C21.8979 19.4004 22.3584 19.145 22.7341 18.788C23.0994 18.4417 23.3638 18.0028 23.4991 17.518C23.8442 15.707 24.012 13.8666 24.0001 12.023C24.0261 10.1716 23.8585 8.32258 23.5001 6.50602V6.50701ZM9.60213 15.424V8.57701L15.8621 12.001L9.60213 15.424Z" fill="white"/>
</g>
<defs>
<clipPath id="clip0_5713_2813">
<rect width="24" height="24" fill="white"/>
</clipPath>
</defs>
</svg>

<svg xmlns="http://www.w3.org/2000/svg" width="24" height="24" fill="none"><g clip-path="url(#a)"><path fill="#fff" d="M23.5 6.507a2.786 2.786 0 0 0-.766-1.27 3.05 3.05 0 0 0-1.338-.742C19.518 4 11.994 4 11.994 4a76.624 76.624 0 0 0-9.39.47c-.502.14-.961.4-1.338.76-.37.356-.638.795-.778 1.276A29.09 29.09 0 0 0 0 12c-.012 1.841.151 3.68.488 5.494.137.479.404.916.775 1.269.371.353.833.608 1.341.743 1.903.494 9.39.494 9.39.494 3.14.036 6.28-.121 9.402-.47a3.05 3.05 0 0 0 1.338-.742 2.78 2.78 0 0 0 .765-1.27c.345-1.811.513-3.651.501-5.495.026-1.851-.142-3.7-.5-5.517v.001ZM9.602 15.424V8.577l6.26 3.424-6.26 3.423Z"/></g><defs><clipPath id="a"><path fill="#fff" d="M0 0h24v24H0z"/></clipPath></defs></svg>
